static/logos/linkedin-glyph-white.svg

<svg width="68" height="64" viewBox="0 0 68 64" fill="none" xmlns="http://www.w3.org/2000/svg">
<g clip-path="url(#clip0_1204_226)">
<path d="M0.500244 7.43434C0.500244 5.27942 1.25445 3.50164 2.76287 2.10101C4.27129 0.70038 6.23223 4.30976e-05 8.6457 0C11.0161 0 12.9339 0.689562 14.3992 2.06869C15.9077 3.49091 16.6619 5.34411 16.6619 7.62828C16.6619 9.69697 15.9292 11.4209 14.4639 12.8C12.9555 14.2222 10.973 14.9333 8.51641 14.9333H8.45176C6.08139 14.9333 4.16354 14.2222 2.69822 12.8C0.500244 10.6667 0.500244 9.5892 0.500244 7.43434ZM1.34065 64V20.8162H15.6922V64H1.34065ZM23.6437 64H37.9952V39.8869C37.9952 38.3784 38.1676 37.2148 38.5124 36.396C39.1157 34.9306 40.0316 33.6916 41.2598 32.6788C42.4881 31.666 44.0289 31.1596 45.8821 31.1596C50.709 31.1596 53.1225 34.4135 53.1225 40.9212V64H67.474V39.2404C67.474 32.862 65.9656 28.0242 62.9487 24.7273C58.4235 19.7818 55.9454 19.7818 50.9891 19.7818C45.4295 19.7818 41.0982 22.1737 37.9952 26.9576V27.0869H37.9305L37.9952 26.9576V20.8162H23.6437C23.7299 22.1953 23.773 26.4835 23.773 33.6808C23.773 40.8781 23.7299 50.9845 23.6437 64Z" fill="white"/>
</g>
<defs>
<clipPath id="clip0_1204_226">
<rect width="66.974" height="64" fill="white" transform="translate(0.5)"/>
</clipPath>
</defs>
</svg>

<svg xmlns="http://www.w3.org/2000/svg" width="68" height="64" fill="none"><g clip-path="url(#a)"><path fill="#fff" d="M.5 7.434q0-3.232 2.263-5.333T8.646 0q3.555 0 5.753 2.069 2.263 2.133 2.263 5.56 0 3.102-2.198 5.171-2.262 2.133-5.948 2.133h-.064q-3.555 0-5.754-2.133C.5 10.667.5 9.59.5 7.434M1.34 64V20.816h14.352V64zm22.304 0h14.351V39.887q0-2.263.517-3.491a9.4 9.4 0 0 1 2.748-3.717q1.842-1.52 4.622-1.52 7.24 0 7.24 9.762V64h14.352V39.24q0-9.567-4.525-14.513c-4.526-4.945-7.004-4.945-11.96-4.945q-8.339 0-12.994 7.176v.129h-.064l.064-.13v-6.14H23.644q.129 2.067.129 12.864 0 10.796-.13 30.319"/></g><defs><clipPath id="a"><path fill="#fff" d="M.5 0h66.974v64H.5z"/></clipPath></defs></svg>
